public/assets/img/components/logo-homestead.svg

<svg xmlns="http://www.w3.org/2000/svg" width="408" height="76" viewBox="0 0 408 76">
  <defs>
    <linearGradient id="a" x1="50%" x2="50%" y1="0%" y2="100%">
      <stop stop-color="#FED757" offset="0%"/>
      <stop stop-color="#E37413" offset="100%"/>
    </linearGradient>
  </defs>
  <g fill="none" fill-rule="evenodd">
    <path fill="#2E2E2E" d="M101.558594,48.7636719 L112.755859,48.7636719 L112.755859,53 L96.2851562,53 L96.2851562,27.40625 L101.558594,27.40625 L101.558594,48.7636719 Z M126.466797,53 C126.232421,52.5429665 126.062501,51.9746128 125.957031,51.2949219 C124.726556,52.6660225 123.126963,53.3515625 121.158203,53.3515625 C119.294913,53.3515625 117.750983,52.8125054 116.526367,51.734375 C115.301752,50.6562446 114.689453,49.2968832 114.689453,47.65625 C114.689453,45.6406149 115.436516,44.0937554 116.930664,43.015625 C118.424812,41.9374946 120.58397,41.3925782 123.408203,41.3808594 L125.746094,41.3808594 L125.746094,40.2910156 C125.746094,39.412105 125.52051,38.708987 125.069336,38.1816406 C124.618162,37.6542942 123.906255,37.390625 122.933594,37.390625 C122.078121,37.390625 121.407229,37.5957011 120.920898,38.0058594 C120.434568,38.4160177 120.191406,38.9785121 120.191406,39.6933594 L115.111328,39.6933594 C115.111328,38.5917914 115.451168,37.5722703 116.130859,36.6347656 C116.81055,35.6972609 117.771478,34.9619167 119.013672,34.4287109 C120.255866,33.8955051 121.650383,33.6289062 123.197266,33.6289062 C125.541027,33.6289062 127.40136,34.2177675 128.77832,35.3955078 C130.15528,36.5732481 130.84375,38.228505 130.84375,40.3613281 L130.84375,48.6054688 C130.855469,50.4101653 131.107419,51.775386 131.599609,52.7011719 L131.599609,53 L126.466797,53 Z M122.265625,49.4667969 C123.015629,49.4667969 123.707028,49.2998064 124.339844,48.9658203 C124.972659,48.6318343 125.441405,48.1835966 125.746094,47.6210938 L125.746094,44.3515625 L123.847656,44.3515625 C121.304675,44.3515625 119.951173,45.23046 119.787109,46.9882812 L119.769531,47.2871094 C119.769531,47.919925 119.992185,48.4414042 120.4375,48.8515625 C120.882815,49.2617208 121.492184,49.4667969 122.265625,49.4667969 Z M145.433594,38.7441406 C144.742184,38.6503902 144.132815,38.6035156 143.605469,38.6035156 C141.683584,38.6035156 140.423831,39.2538997 139.826172,40.5546875 L139.826172,53 L134.746094,53 L134.746094,33.9804688 L139.544922,33.9804688 L139.685547,36.2480469 C140.705083,34.5019444 142.117178,33.6289062 143.921875,33.6289062 C144.484378,33.6289062 145.011716,33.7050774 145.503906,33.8574219 L145.433594,38.7441406 Z M158.371094,53 C158.136718,52.5429665 157.966797,51.9746128 157.861328,51.2949219 C156.630853,52.6660225 155.03126,53.3515625 153.0625,53.3515625 C151.199209,53.3515625 149.65528,52.8125054 148.430664,51.734375 C147.206049,50.6562446 146.59375,49.2968832 146.59375,47.65625 C146.59375,45.6406149 147.340813,44.0937554 148.834961,43.015625 C150.329109,41.9374946 152.488267,41.3925782 155.3125,41.3808594 L157.650391,41.3808594 L157.650391,40.2910156 C157.650391,39.412105 157.424807,38.708987 156.973633,38.1816406 C156.522459,37.6542942 155.810552,37.390625 154.837891,37.390625 C153.982418,37.390625 153.311526,37.5957011 152.825195,38.0058594 C152.338865,38.4160177 152.095703,38.9785121 152.095703,39.6933594 L147.015625,39.6933594 C147.015625,38.5917914 147.355465,37.5722703 148.035156,36.6347656 C148.714847,35.6972609 149.675775,34.9619167 150.917969,34.4287109 C152.160162,33.8955051 153.55468,33.6289062 155.101562,33.6289062 C157.445324,33.6289062 159.305657,34.2177675 160.682617,35.3955078 C162.059577,36.5732481 162.748047,38.228505 162.748047,40.3613281 L162.748047,48.6054688 C162.759766,50.4101653 163.011716,51.775386 163.503906,52.7011719 L163.503906,53 L158.371094,53 Z M154.169922,49.4667969 C154.919926,49.4667969 155.611325,49.2998064 156.244141,48.9658203 C156.876956,48.6318343 157.345702,48.1835966 157.650391,47.6210938 L157.650391,44.3515625 L155.751953,44.3515625 C153.208972,44.3515625 151.85547,45.23046 151.691406,46.9882812 L151.673828,47.2871094 C151.673828,47.919925 151.896482,48.4414042 152.341797,48.8515625 C152.787112,49.2617208 153.396481,49.4667969 154.169922,49.4667969 Z M173.505859,46.7949219 L177.039062,33.9804688 L182.347656,33.9804688 L175.931641,53 L171.080078,53 L164.664062,33.9804688 L169.972656,33.9804688 L173.505859,46.7949219 Z M193.105469,53.3515625 C190.316392,53.3515625 188.045907,52.4961023 186.293945,50.7851562 C184.541983,49.0742102 183.666016,46.7949361 183.666016,43.9472656 L183.666016,43.4550781 C183.666016,41.5449123 184.035153,39.8369216 184.773438,38.3310547 C185.511722,36.8251878 186.55761,35.6650431 187.911133,34.8505859 C189.264655,34.0361287 190.808585,33.6289062 192.542969,33.6289062 C195.144544,33.6289062 197.192375,34.4492105 198.686523,36.0898438 C200.180672,37.730477 200.927734,40.0566256 200.927734,43.0683594 L200.927734,45.1425781 L188.816406,45.1425781 C188.98047,46.3847718 189.475582,47.3808556 190.301758,48.1308594 C191.127934,48.8808631 192.173822,49.2558594 193.439453,49.2558594 C195.396494,49.2558594 196.925776,48.5468821 198.027344,47.1289062 L200.523438,49.9238281 C199.761715,51.0019585 198.730475,51.8427704 197.429688,52.4462891 C196.1289,53.0498077 194.687508,53.3515625 193.105469,53.3515625 Z M192.525391,37.7421875 C191.517573,37.7421875 190.700198,38.0820279 190.073242,38.7617188 C189.446286,39.4414096 189.044923,40.4140562 188.869141,41.6796875 L195.935547,41.6796875 L195.935547,41.2753906 C195.912109,40.150385 195.607425,39.2802765 195.021484,38.6650391 C194.435544,38.0498016 193.603521,37.7421875 192.525391,37.7421875 Z M209.171875,53 L204.074219,53 L204.074219,26 L209.171875,26 L209.171875,53 Z M242.359375,53 L240.179688,53 L240.179688,40.7304688 L225.554688,40.7304688 L225.554688,53 L223.392578,53 L223.392578,27.40625 L225.554688,27.40625 L225.554688,38.9023438 L240.179688,38.9023438 L240.179688,27.40625 L242.359375,27.40625 L242.359375,53 Z M247.210938,43.2089844 C247.210938,41.3808502 247.565426,39.7343823 248.274414,38.2695312 C248.983402,36.8046802 249.985345,35.6650431 251.280273,34.8505859 C252.575202,34.0361287 254.042961,33.6289062 255.683594,33.6289062 C258.214856,33.6289062 260.265617,34.5165927 261.835938,36.2919922 C263.406258,38.0673917 264.191406,40.4199072 264.191406,43.3496094 L264.191406,43.7890625 C264.191406,45.6289154 263.836918,47.2841723 263.12793,48.7548828 C262.418942,50.2255933 261.419928,51.359371 260.130859,52.15625 C258.84179,52.953129 257.371102,53.3515625 255.71875,53.3515625 C253.199206,53.3515625 251.151375,52.4638761 249.575195,50.6884766 C247.999016,48.9130771 247.210938,46.5605615 247.210938,43.6308594 L247.210938,43.2089844 Z M249.320312,43.7890625 C249.320312,46.0625114 249.909174,47.9287036 251.086914,49.3876953 C252.264654,50.846687 253.808584,51.5761719 255.71875,51.5761719 C257.617197,51.5761719 259.155268,50.846687 260.333008,49.3876953 C261.510748,47.9287036 262.099609,46.0039182 262.099609,43.6132812 L262.099609,43.2089844 C262.099609,41.7558521 261.830081,40.4257873 261.291016,39.21875 C260.75195,38.0117127 259.996099,37.0771517 259.023438,36.4150391 C258.050776,35.7529264 256.937506,35.421875 255.683594,35.421875 C253.808584,35.421875 252.279303,36.1572192 251.095703,37.6279297 C249.912103,39.0986402 249.320312,41.0234256 249.320312,43.4023438 L249.320312,43.7890625 Z M270.449219,33.9804688 L270.519531,37.0742188 C271.22266,35.9257755 272.101557,35.064456 273.15625,34.4902344 C274.210943,33.9160128 275.382806,33.6289062 276.671875,33.6289062 C279.67189,33.6289062 281.576168,34.8593627 282.384766,37.3203125 C283.064457,36.1367128 283.972651,35.2255891 285.109375,34.5869141 C286.246099,33.948239 287.499993,33.6289062 288.871094,33.6289062 C292.949239,33.6289062 295.029296,35.8554465 295.111328,40.3085938 L295.111328,53 L293.001953,53 L293.001953,40.4667969 C292.990234,38.7675696 292.624027,37.5078166 291.90332,36.6875 C291.182614,35.8671834 290.007821,35.4570312 288.378906,35.4570312 C286.86718,35.4804689 285.589849,35.9697218 284.546875,36.9248047 C283.503901,37.8798876 282.923829,39.0429619 282.806641,40.4140625 L282.806641,53 L280.697266,53 L280.697266,40.3085938 C280.685547,38.6796794 280.301762,37.4638712 279.545898,36.6611328 C278.790035,35.8583944 277.626961,35.4570312 276.056641,35.4570312 C274.732415,35.4570312 273.595708,35.8349572 272.646484,36.5908203 C271.697261,37.3466835 270.994143,38.4687426 270.537109,39.9570312 L270.537109,53 L268.427734,53 L268.427734,33.9804688 L270.449219,33.9804688 Z M307.802734,53.3515625 C306.185539,53.3515625 304.723639,52.953129 303.416992,52.15625 C302.110345,51.359371 301.093754,50.2490306 300.367188,48.8251953 C299.640621,47.4013601 299.277344,45.8046963 299.277344,44.0351562 L299.277344,43.2792969 C299.277344,41.4511627 299.631832,39.8046948 300.34082,38.3398438 C301.049808,36.8749927 302.037103,35.723637 303.302734,34.8857422 C304.568366,34.0478474 305.939446,33.6289062 307.416016,33.6289062 C309.724621,33.6289062 311.555657,34.4169843 312.90918,35.9931641 C314.262702,37.5693438 314.939453,39.7226426 314.939453,42.453125 L314.939453,43.6308594 L301.369141,43.6308594 L301.369141,44.0351562 C301.369141,46.191417 301.987299,47.9872975 303.223633,49.4228516 C304.459967,50.8584056 306.015616,51.5761719 307.890625,51.5761719 C309.015631,51.5761719 310.008785,51.3710958 310.870117,50.9609375 C311.73145,50.5507792 312.513668,49.8945358 313.216797,48.9921875 L314.535156,49.9941406 C312.988274,52.2324331 310.744155,53.3515625 307.802734,53.3515625 Z M307.416016,35.421875 C305.833976,35.421875 304.500982,36.0019473 303.416992,37.1621094 C302.333002,38.3222714 301.673829,39.8808496 301.439453,41.8378906 L312.847656,41.8378906 L312.847656,41.609375 C312.789062,39.7812409 312.267583,38.2929745 311.283203,37.1445312 C310.298823,35.996088 309.009774,35.421875 307.416016,35.421875 Z M330.425781,48.1660156 C330.425781,47.1230417 330.00684,46.2851594 329.168945,45.6523438 C328.33105,45.0195281 327.068368,44.5244158 325.380859,44.1669922 C323.693351,43.8095685 322.383794,43.3994164 321.452148,42.9365234 C320.520503,42.4736305 319.829104,41.9082065 319.37793,41.2402344 C318.926756,40.5722623 318.701172,39.7636766 318.701172,38.8144531 C318.701172,37.3144456 319.328119,36.0752002 320.582031,35.0966797 C321.835944,34.1181592 323.441396,33.6289062 325.398438,33.6289062 C327.519542,33.6289062 329.221673,34.1533151 330.504883,35.2021484 C331.788092,36.2509818 332.429688,37.6191322 332.429688,39.3066406 L330.320312,39.3066406 C330.320312,38.1933538 329.854497,37.2675818 328.922852,36.5292969 C327.991206,35.7910119 326.816413,35.421875 325.398438,35.421875 C324.015618,35.421875 322.905278,35.7294891 322.067383,36.3447266 C321.229488,36.959964 320.810547,37.7597607 320.810547,38.7441406 C320.810547,39.6933641 321.159176,40.4287083 321.856445,40.9501953 C322.553714,41.4716823 323.825186,41.9492166 325.670898,42.3828125 C327.516611,42.8164084 328.899409,43.2792944 329.819336,43.7714844 C330.739262,44.2636743 331.421873,44.8554653 331.867188,45.546875 C332.312502,46.2382847 332.535156,47.076167 332.535156,48.0605469 C332.535156,49.6660237 331.887702,50.9492139 330.592773,51.9101562 C329.297845,52.8710986 327.607432,53.3515625 325.521484,53.3515625 C323.30663,53.3515625 321.510749,52.815435 320.133789,51.7431641 C318.756829,50.6708931 318.068359,49.3144613 318.068359,47.6738281 L320.177734,47.6738281 C320.259766,48.904303 320.778316,49.8623013 321.733398,50.5478516 C322.688481,51.2334019 323.951164,51.5761719 325.521484,51.5761719 C326.986335,51.5761719 328.169917,51.2539095 329.072266,50.609375 C329.974614,49.9648405 330.425781,49.1503955 330.425781,48.1660156 Z M340.533203,29.1113281 L340.533203,33.9804688 L344.470703,33.9804688 L344.470703,35.703125 L340.533203,35.703125 L340.533203,48.3769531 C340.533203,49.4316459 340.723631,50.2167943 341.104492,50.7324219 C341.485353,51.2480495 342.121089,51.5058594 343.011719,51.5058594 C343.363283,51.5058594 343.931637,51.4472662 344.716797,51.3300781 L344.804688,53.0527344 C344.253903,53.2519541 343.503911,53.3515625 342.554688,53.3515625 C341.113274,53.3515625 340.064456,52.9326214 339.408203,52.0947266 C338.75195,51.2568317 338.423828,50.0234456 338.423828,48.3945312 L338.423828,35.703125 L334.925781,35.703125 L334.925781,33.9804688 L338.423828,33.9804688 L338.423828,29.1113281 L340.533203,29.1113281 Z M356.195312,53.3515625 C354.578117,53.3515625 353.116217,52.953129 351.80957,52.15625 C350.502923,51.359371 349.486332,50.2490306 348.759766,48.8251953 C348.033199,47.4013601 347.669922,45.8046963 347.669922,44.0351562 L347.669922,43.2792969 C347.669922,41.4511627 348.024411,39.8046948 348.733398,38.3398438 C349.442386,36.8749927 350.429681,35.723637 351.695312,34.8857422 C352.960944,34.0478474 354.332024,33.6289062 355.808594,33.6289062 C358.117199,33.6289062 359.948235,34.4169843 361.301758,35.9931641 C362.65528,37.5693438 363.332031,39.7226426 363.332031,42.453125 L363.332031,43.6308594 L349.761719,43.6308594 L349.761719,44.0351562 C349.761719,46.191417 350.379877,47.9872975 351.616211,49.4228516 C352.852545,50.8584056 354.408194,51.5761719 356.283203,51.5761719 C357.408209,51.5761719 358.401363,51.3710958 359.262695,50.9609375 C360.124028,50.5507792 360.906246,49.8945358 361.609375,48.9921875 L362.927734,49.9941406 C361.380852,52.2324331 359.136733,53.3515625 356.195312,53.3515625 Z M355.808594,35.421875 C354.226555,35.421875 352.89356,36.0019473 351.80957,37.1621094 C350.725581,38.3222714 350.066407,39.8808496 349.832031,41.8378906 L361.240234,41.8378906 L361.240234,41.609375 C361.18164,39.7812409 360.660161,38.2929745 359.675781,37.1445312 C358.691401,35.996088 357.402352,35.421875 355.808594,35.421875 Z M379.433594,53 C379.222655,52.4023408 379.087891,51.517584 379.029297,50.3457031 C378.291012,51.3066454 377.350592,52.047849 376.208008,52.5693359 C375.065424,53.0908229 373.855475,53.3515625 372.578125,53.3515625 C370.749991,53.3515625 369.270513,52.841802 368.139648,51.8222656 C367.008783,50.8027293 366.443359,49.5136797 366.443359,47.9550781 C366.443359,46.1035064 367.213859,44.6386773 368.754883,43.5605469 C370.295906,42.4824165 372.443346,41.9433594 375.197266,41.9433594 L379.011719,41.9433594 L379.011719,39.78125 C379.011719,38.4218682 378.592778,37.352543 377.754883,36.5732422 C376.916988,35.7939414 375.695321,35.4042969 374.089844,35.4042969 C372.624993,35.4042969 371.412114,35.7792931 370.451172,36.5292969 C369.49023,37.2793006 369.009766,38.1816354 369.009766,39.2363281 L366.900391,39.21875 C366.900391,37.7070237 367.603509,36.3974665 369.009766,35.2900391 C370.416023,34.1826117 372.144521,33.6289062 374.195312,33.6289062 C376.316417,33.6289062 377.989252,34.1591744 379.213867,35.2197266 C380.438483,36.2802787 381.068359,37.7597561 381.103516,39.6582031 L381.103516,48.6582031 C381.103516,50.4980561 381.296873,51.8749954 381.683594,52.7890625 L381.683594,53 L379.433594,53 Z M372.824219,51.4882812 C374.230476,51.4882812 375.487299,51.1484409 376.594727,50.46875 C377.702154,49.7890591 378.50781,48.8808651 379.011719,47.7441406 L379.011719,43.5605469 L375.25,43.5605469 C373.152333,43.5839845 371.511725,43.9677697 370.328125,44.7119141 C369.144525,45.4560584 368.552734,46.4785091 368.552734,47.7792969 C368.552734,48.8457085 368.948238,49.7304652 369.739258,50.4335938 C370.530277,51.1367223 371.558587,51.4882812 372.824219,51.4882812 Z M385.867188,43.3144531 C385.867188,40.3613134 386.526361,38.0087978 387.844727,36.2568359 C389.163093,34.5048741 390.953114,33.6289062 393.214844,33.6289062 C395.781263,33.6289062 397.738275,34.642568 399.085938,36.6699219 L399.085938,26 L401.177734,26 L401.177734,53 L399.208984,53 L399.121094,50.46875 C397.773431,52.3906346 395.792982,53.3515625 393.179688,53.3515625 C390.98827,53.3515625 389.221686,52.4697354 387.879883,50.7060547 C386.538079,48.942374 385.867188,46.5605619 385.867188,43.5605469 L385.867188,43.3144531 Z M387.994141,43.6835938 C387.994141,46.1093871 388.480464,48.0224539 389.453125,49.4228516 C390.425786,50.8232492 391.796866,51.5234375 393.566406,51.5234375 C396.156263,51.5234375 397.996088,50.3808708 399.085938,48.0957031 L399.085938,39.1660156 C397.996088,36.693347 396.167982,35.4570312 393.601562,35.4570312 C391.832022,35.4570312 390.455083,36.1513602 389.470703,37.5400391 C388.486323,38.9287179 387.994141,40.976549 387.994141,43.6835938 Z"/>
    <path fill="url(#a)" d="M60,39 L54,33 L54,45 L60,51 L60,55 L54,49 L54,61 L60,67 L60,75 L64,75 L64,27 L61,24 L54,17 L54,29 L60,35 L60,39 Z M8,39 L2,33 L2,45 L8,51 L8,55 L2,49 L2,61 L8,67 L8,75 L12,75 L12,27 L9,24 L2,17 L2,29 L8,35 L8,39 Z M34,39 L28,33 L28,45 L34,51 L34,55 L28,49 L28,61 L34,67 L34,75 L38,75 L38,11 L35,8 L28,1 L28,13 L34,19 L34,23 L28,17 L28,29 L34,35 L34,39 Z M40,41 L48,33 L48,45 L40,53 L40,41 Z M40,57 L48,49 L48,61 L40,69 L40,57 Z M40,25 L48,17 L48,29 L40,37 L40,25 Z M40,9 L48,1 L48,13 L40,21 L40,9 Z M14,41 L22,33 L22,45 L14,53 L14,41 Z M14,57 L22,49 L22,61 L14,69 L14,57 Z M14,25 L22,17 L22,29 L14,37 L14,25 Z M66,41 L74,33 L74,45 L66,53 L66,41 Z M66,57 L74,49 L74,61 L66,69 L66,57 Z M66,25 L74,17 L74,29 L66,37 L66,25 Z"/>
  </g>
</svg>

<svg xmlns="http://www.w3.org/2000/svg" width="408" height="76" viewBox="0 0 408 76"><defs><linearGradient id="a" x1="50%" x2="50%" y1="0%" y2="100%"><stop stop-color="#FED757" offset="0%"/><stop stop-color="#E37413" offset="100%"/></linearGradient></defs><g fill="none" fill-rule="evenodd"><path fill="#2E2E2E" d="M101.56 48.764h11.196V53h-16.47V27.406h5.273v21.358zM126.466 53c-.235-.457-.404-1.025-.51-1.705-1.23 1.37-2.83 2.057-4.8 2.057-1.862 0-3.406-.54-4.63-1.618-1.225-1.078-1.838-2.437-1.838-4.078 0-2.015.747-3.562 2.24-4.64 1.495-1.08 3.654-1.623 6.478-1.635h2.338v-1.09c0-.878-.225-1.58-.677-2.108-.452-.528-1.164-.79-2.136-.79-.856 0-1.527.204-2.013.614-.485.41-.73.973-.73 1.687h-5.08c0-1.1.34-2.12 1.02-3.058.68-.938 1.64-1.673 2.884-2.206 1.242-.534 2.636-.8 4.183-.8 2.344 0 4.204.588 5.58 1.766 1.378 1.177 2.067 2.833 2.067 4.965v8.245c.01 1.805.263 3.17.756 4.096v.3h-5.133zm-4.2-3.533c.75 0 1.44-.167 2.073-.5.633-.335 1.1-.783 1.406-1.346v-3.268h-1.898c-2.543 0-3.897.878-4.06 2.636l-.018.3c0 .632.222 1.153.668 1.564.445.41 1.054.615 1.828.615zm23.167-10.723c-.692-.094-1.3-.14-1.83-.14-1.92 0-3.18.65-3.778 1.95V53h-5.08V33.98h4.8l.14 2.268c1.02-1.746 2.43-2.62 4.236-2.62.562 0 1.09.077 1.582.23l-.07 4.886zM158.37 53c-.233-.457-.403-1.025-.51-1.705-1.23 1.37-2.83 2.057-4.798 2.057-1.863 0-3.407-.54-4.63-1.618-1.226-1.078-1.838-2.437-1.838-4.078 0-2.015.747-3.562 2.24-4.64 1.495-1.08 3.654-1.623 6.478-1.635h2.338v-1.09c0-.878-.225-1.58-.676-2.108-.452-.528-1.163-.79-2.136-.79-.856 0-1.526.204-2.013.614-.486.41-.73.973-.73 1.687h-5.08c0-1.1.34-2.12 1.02-3.058.68-.938 1.64-1.673 2.883-2.206 1.242-.534 2.637-.8 4.184-.8 2.343 0 4.204.588 5.58 1.766 1.378 1.177 2.066 2.833 2.066 4.965v8.245c.012 1.805.264 3.17.756 4.096v.3h-5.133zm-4.2-3.533c.75 0 1.44-.167 2.074-.5.633-.335 1.102-.783 1.406-1.346v-3.268h-1.898c-2.543 0-3.897.878-4.06 2.636l-.018.3c0 .632.222 1.153.668 1.564.445.41 1.054.615 1.828.615zm19.336-2.672l3.533-12.815h5.308L175.932 53h-4.852l-6.416-19.02h5.31l3.532 12.815zm19.6 6.557c-2.79 0-5.06-.856-6.812-2.567-1.752-1.71-2.628-3.99-2.628-6.838v-.492c0-1.91.37-3.618 1.107-5.124.74-1.505 1.785-2.665 3.138-3.48 1.355-.814 2.9-1.22 4.633-1.22 2.602 0 4.65.82 6.144 2.46 1.494 1.64 2.24 3.967 2.24 6.978v2.075h-12.11c.163 1.242.66 2.238 1.485 2.988.826.75 1.872 1.126 3.137 1.126 1.956 0 3.486-.71 4.587-2.127l2.496 2.794c-.76 1.078-1.793 1.92-3.093 2.522-1.3.604-2.742.906-4.325.906zm-.58-15.61c-1.008 0-1.826.34-2.453 1.02-.627.68-1.028 1.652-1.204 2.918h7.066v-.405c-.024-1.125-.33-1.995-.915-2.61-.584-.615-1.416-.923-2.495-.923zM209.17 53h-5.098V26h5.098v27zm33.187 0h-2.18V40.73h-14.625V53h-2.162V27.406h2.162v11.496h14.625V27.406h2.18V53zm4.85-9.79c0-1.83.355-3.476 1.064-4.94.71-1.465 1.71-2.605 3.006-3.42 1.295-.814 2.763-1.22 4.404-1.22 2.53 0 4.582.887 6.152 2.662 1.57 1.775 2.355 4.128 2.355 7.058v.44c0 1.84-.353 3.494-1.062 4.965-.71 1.47-1.708 2.604-2.997 3.4-1.288.798-2.76 1.197-4.41 1.197-2.52 0-4.57-.888-6.145-2.664-1.576-1.775-2.364-4.127-2.364-7.057v-.42zm2.11.58c0 2.273.59 4.14 1.767 5.598 1.178 1.46 2.722 2.188 4.632 2.188 1.897 0 3.435-.73 4.613-2.188 1.178-1.46 1.767-3.384 1.767-5.775v-.404c0-1.454-.27-2.784-.81-3.99-.538-1.208-1.294-2.143-2.267-2.805-.972-.662-2.085-.993-3.34-.993-1.874 0-3.404.735-4.587 2.206-1.184 1.47-1.776 3.395-1.776 5.774v.387zm21.13-9.81l.07 3.094c.703-1.148 1.582-2.01 2.636-2.584 1.055-.574 2.227-.86 3.516-.86 3 0 4.904 1.23 5.713 3.69.68-1.183 1.588-2.094 2.724-2.733 1.136-.64 2.39-.958 3.76-.958 4.08 0 6.16 2.225 6.24 6.68V53h-2.108V40.467c-.012-1.7-.378-2.96-1.1-3.78-.72-.82-1.894-1.23-3.523-1.23-1.513.023-2.79.513-3.833 1.468-1.043.955-1.623 2.118-1.74 3.49V53h-2.11V40.31c-.01-1.63-.395-2.846-1.15-3.65-.757-.802-1.92-1.203-3.49-1.203-1.325 0-2.46.378-3.41 1.134-.95.757-1.653 1.88-2.11 3.367V53h-2.11V33.98h2.022zm37.353 19.372c-1.617 0-3.08-.4-4.386-1.196-1.307-.797-2.323-1.907-3.05-3.33-.726-1.425-1.09-3.02-1.09-4.79v-.757c0-1.83.355-3.475 1.064-4.94.71-1.465 1.697-2.616 2.963-3.454 1.265-.838 2.636-1.257 4.113-1.257 2.31 0 4.14.787 5.493 2.363 1.353 1.576 2.03 3.73 2.03 6.46v1.178h-13.57v.405c0 2.156.617 3.952 1.854 5.388 1.236 1.435 2.792 2.153 4.667 2.153 1.126 0 2.12-.205 2.98-.615.86-.41 1.644-1.065 2.347-1.968l1.318 1.002c-1.547 2.238-3.79 3.358-6.732 3.358zm-.387-17.93c-1.582 0-2.915.58-4 1.74-1.083 1.16-1.742 2.72-1.977 4.676h11.408v-.23c-.06-1.827-.58-3.315-1.565-4.463-.984-1.15-2.273-1.723-3.867-1.723zm23.01 12.744c0-1.043-.42-1.88-1.257-2.514-.84-.632-2.102-1.128-3.79-1.485-1.687-.357-2.996-.768-3.928-1.23-.93-.463-1.623-1.03-2.074-1.697-.45-.668-.677-1.476-.677-2.426 0-1.5.628-2.74 1.882-3.717 1.254-.98 2.86-1.468 4.816-1.468 2.122 0 3.824.523 5.107 1.572 1.283 1.05 1.925 2.417 1.925 4.105h-2.11c0-1.114-.466-2.04-1.397-2.778-.932-.74-2.107-1.108-3.525-1.108-1.382 0-2.493.307-3.33.923-.84.615-1.257 1.415-1.257 2.4 0 .948.35 1.684 1.046 2.205.698.522 1.97 1 3.815 1.433 1.847.433 3.23.896 4.15 1.388.92.494 1.602 1.085 2.047 1.777.446.69.668 1.53.668 2.514 0 1.606-.647 2.89-1.942 3.85s-2.986 1.442-5.072 1.442c-2.213 0-4.01-.537-5.386-1.61-1.377-1.07-2.066-2.428-2.066-4.068h2.11c.082 1.23.6 2.188 1.555 2.874.955.685 2.218 1.028 3.788 1.028 1.466 0 2.65-.322 3.552-.967.903-.645 1.354-1.46 1.354-2.444zm10.107-19.055v4.87h3.938v1.723h-3.937v12.674c0 1.055.19 1.84.57 2.355.382.516 1.018.774 1.91.774.35 0 .92-.06 1.704-.176l.088 1.723c-.55.2-1.3.3-2.25.3-1.442 0-2.49-.42-3.147-1.258-.656-.838-.984-2.072-.984-3.7V35.703h-3.498V33.98h3.498v-4.87h2.11zm15.662 24.242c-1.617 0-3.08-.4-4.385-1.196-1.307-.797-2.324-1.907-3.05-3.33-.727-1.425-1.09-3.02-1.09-4.79v-.757c0-1.83.354-3.475 1.063-4.94.71-1.465 1.697-2.616 2.962-3.454 1.266-.838 2.637-1.257 4.114-1.257 2.307 0 4.138.787 5.492 2.363 1.353 1.576 2.03 3.73 2.03 6.46v1.178h-13.57v.405c0 2.156.618 3.952 1.854 5.388 1.237 1.435 2.792 2.153 4.667 2.153 1.125 0 2.118-.205 2.98-.615.86-.41 1.643-1.065 2.346-1.968l1.318 1.002c-1.547 2.238-3.79 3.358-6.733 3.358zm-.386-17.93c-1.583 0-2.916.58-4 1.74-1.084 1.16-1.744 2.72-1.978 4.676h11.408v-.23c-.058-1.827-.58-3.315-1.564-4.463-.985-1.15-2.274-1.723-3.867-1.723zM379.433 53c-.21-.598-.346-1.482-.405-2.654-.74.96-1.68 1.702-2.822 2.223-1.143.52-2.353.782-3.63.782-1.828 0-3.307-.51-4.438-1.53-1.13-1.02-1.697-2.308-1.697-3.867 0-1.85.77-3.316 2.312-4.394 1.54-1.078 3.688-1.617 6.442-1.617h3.815V39.78c0-1.358-.42-2.427-1.257-3.207-.838-.78-2.06-1.17-3.665-1.17-1.465 0-2.678.376-3.64 1.126-.96.75-1.44 1.652-1.44 2.706l-2.11-.017c0-1.513.704-2.823 2.11-3.93 1.406-1.107 3.135-1.66 5.185-1.66 2.12 0 3.794.53 5.02 1.59 1.223 1.06 1.853 2.54 1.89 4.438v9c0 1.84.192 3.217.58 4.13V53h-2.25zm-6.61-1.512c1.406 0 2.663-.34 3.77-1.02 1.108-.68 1.914-1.587 2.418-2.724V43.56h-3.762c-2.098.024-3.738.408-4.922 1.152-1.183.744-1.775 1.767-1.775 3.067 0 1.066.395 1.95 1.186 2.654.79.703 1.82 1.054 3.084 1.054zm13.043-8.174c0-2.953.66-5.305 1.978-7.057 1.318-1.752 3.108-2.628 5.37-2.628 2.566 0 4.523 1.013 5.87 3.04V26h2.093v27h-1.97l-.087-2.53c-1.347 1.92-3.327 2.882-5.94 2.882-2.192 0-3.958-.882-5.3-2.646-1.342-1.764-2.013-4.145-2.013-7.145v-.246zm2.127.37c0 2.425.486 4.338 1.46 5.74.972 1.4 2.343 2.1 4.112 2.1 2.59 0 4.43-1.143 5.52-3.428v-8.93c-1.09-2.473-2.918-3.71-5.484-3.71-1.77 0-3.147.695-4.13 2.084-.986 1.39-1.478 3.437-1.478 6.144z"/><path fill="url(#a)" d="M60 39l-6-6v12l6 6v4l-6-6v12l6 6v8h4V27l-3-3-7-7v12l6 6v4zM8 39l-6-6v12l6 6v4l-6-6v12l6 6v8h4V27l-3-3-7-7v12l6 6v4zm26 0l-6-6v12l6 6v4l-6-6v12l6 6v8h4V11l-3-3-7-7v12l6 6v4l-6-6v12l6 6v4zm6 2l8-8v12l-8 8V41zm0 16l8-8v12l-8 8V57zm0-32l8-8v12l-8 8V25zm0-16l8-8v12l-8 8V9zM14 41l8-8v12l-8 8V41zm0 16l8-8v12l-8 8V57zm0-32l8-8v12l-8 8V25zm52 16l8-8v12l-8 8V41zm0 16l8-8v12l-8 8V57zm0-32l8-8v12l-8 8V25z"/></g></svg>
